X:8
T: DAS MAEDCHEN ICH SAH
N: F0034
O: Europa, Mitteleuropa, Deutschland
R: Liebes - Lied, Hochzeit; Tanz - Lied
M: 3/4
L: 1/16
K: A
c2 | c4B3cA2c2 | c4B3cA4
B4B3AG3A | B2A2G2F2E2
c2 | c4B3cA2c2 | c4B3cA4
B4B3AG3B | B4A2z2z2
e2 | e4e3ee2e2 | d4f3ed3
c | B2c2d2c2d2B2 | c2d2e3dc3
B | A2c2c2c2c2c2 | B2c2d2c2B2
A2 | B2c2B2A2G2B2 | B4A2z2z2

